packages/flutter/assets/icons/growth.svg

<?xml version="1.0" encoding="UTF-8"?>
<svg width="24px" height="24px" viewBox="0 0 24 24" version="1.1" xmlns="http://www.w3.org/2000/svg" xmlns:xlink="http://www.w3.org/1999/xlink">
    <title>growth</title>
    <g id="growth" stroke="none" stroke-width="1" fill="none" fill-rule="evenodd">
        <path d="M4.00578665,2.49999922 L4.25868979,2.50567168 C4.64109938,2.5188556 5.11509343,2.55380983 5.6496623,2.62068411 C6.59341518,2.73874708 7.51865912,2.93314156 8.37737274,3.22174224 C10.6526539,3.98642991 12.1488204,5.29737127 12.4463796,7.27803524 C12.4684895,7.31893736 12.4834636,7.36339977 12.4919443,7.41012437 L12.5,7.5 L12.5011084,10.6611772 C13.1950085,9.83527635 14.2252592,9.20721411 15.514597,8.75868269 C16.3884144,8.45470142 17.3360137,8.25020769 18.306698,8.12620125 C18.947009,8.04440051 19.5036961,8.00829463 19.9277957,8.00080221 L19.9277957,8.00080221 L19.9942134,8.00003349 C20.2725997,7.99681142 20.5,8.22159503 20.5,8.5 C20.5,10.9516036 18.834413,12.5130914 16.1491375,13.35224 C15.2391242,13.6366192 14.269995,13.8183309 13.301803,13.9191842 C12.9634749,13.9544267 12.6490021,13.977105 12.3660492,13.9897369 L12.4999956,13.9819657 L12.5002335,16.0089645 C15.4586381,16.1149535 18.3678898,17.1607831 20.3535534,19.1464466 C20.5488155,19.3417088 20.5488155,19.6582912 20.3535534,19.8535534 C20.1582912,20.0488155 19.8417088,20.0488155 19.6464466,19.8535534 C15.841719,16.0488258 8.15695299,16.0488258 4.3536151,19.8534917 C4.15838704,20.0487879 3.84180455,20.0488432 3.64650833,19.8536151 C3.4512121,19.658387 3.45115684,19.3418046 3.6463849,19.1465083 C5.63183664,17.1603634 8.54161167,16.1144943 11.500677,16.0088947 L11.5017787,8.48376455 C11.3080938,8.47343464 11.0959166,8.45797884 10.8683607,8.43637825 L10.8683607,8.43637825 L10.355999,8.38002315 C9.41270287,8.2623413 8.4875813,8.06839463 7.62870646,7.78029891 C5.18233725,6.95970378 3.63500927,5.50846684 3.50749491,3.2725941 L3.50749491,3.2725941 L3.50019905,3.01410701 C3.49218783,2.73027553 3.72186115,2.49674731 4.00578665,2.49999922 L4.00578665,2.49999922 Z M19.464,9.02 L19.1580254,9.04181681 C18.934075,9.06019836 18.6911242,9.0852174 18.4334197,9.11813956 C17.5266761,9.23397748 16.6448329,9.42428091 15.8431608,9.70316446 C13.9572844,10.3592182 12.7917869,11.3906377 12.5479337,12.8894489 L12.5479337,12.8894489 L12.535,12.978 L12.739574,12.9656493 L13.198197,12.9245658 C14.105005,12.8301066 15.0108758,12.6602558 15.8508625,12.39776 C17.9175808,11.7519106 19.2028008,10.6854131 19.45448,9.09525647 L19.45448,9.09525647 L19.464,9.02 Z M4.535,3.52 L4.55203006,3.63524584 C4.80954712,5.14725187 6.01424316,6.18399452 7.94672602,6.83221475 C8.73621821,7.09703718 9.59801446,7.27770805 10.4797953,7.3877155 C10.8139649,7.42940516 11.1220959,7.45776233 11.3941854,7.47562374 L11.3941854,7.47562374 L11.464,7.479 L11.4486562,7.36880271 C11.2039759,5.9218353 10.0927229,4.90976523 8.30653511,4.25650433 L8.30653511,4.25650433 L8.05879856,4.16964018 C7.26954132,3.90438273 6.40769503,3.72330815 5.5255304,3.61294983 C5.1908772,3.5710849 4.88212045,3.54258111 4.60878551,3.52459785 L4.60878551,3.52459785 L4.535,3.52 Z" id="Line-10" fill="#303846"></path>
    </g>
</svg>

<svg xmlns="http://www.w3.org/2000/svg" width="24" height="24" viewBox="0 0 24 24"><path fill-rule="evenodd" d="M4.006 2.5l.253.006c.382.013.856.048 1.39.115.944.118 1.87.312 2.728.6 2.276.765 3.772 2.076 4.07 4.057.021.04.036.085.045.132l.008.09.001 3.161c.694-.826 1.724-1.454 3.014-1.902a13.907 13.907 0 0 1 2.792-.633 15.2 15.2 0 0 1 1.62-.125L19.995 8a.5.5 0 0 1 .506.5c0 2.452-1.666 4.013-4.35 4.852-.91.285-1.88.466-2.848.567-.339.035-.653.058-.936.07l.134-.007v2.027c2.959.106 5.868 1.152 7.854 3.137a.5.5 0 0 1-.708.708c-3.804-3.805-11.489-3.805-15.292 0a.5.5 0 1 1-.708-.707c1.986-1.987 4.896-3.033 7.855-3.138V8.484a14.39 14.39 0 0 1-.633-.048l-.512-.056a14.115 14.115 0 0 1-2.727-.6c-2.447-.82-3.994-2.272-4.122-4.507L3.5 3.014a.5.5 0 0 1 .506-.514zm15.458 6.52l-.306.022c-.224.018-.467.043-.725.076-.906.116-1.788.306-2.59.585-1.886.656-3.051 1.688-3.295 3.186l-.013.089.205-.012.458-.041a13.742 13.742 0 0 0 2.653-.527c2.067-.646 3.352-1.713 3.603-3.303l.01-.075zM4.535 3.52l.017.115c.258 1.512 1.462 2.549 3.395 3.197.79.265 1.651.446 2.533.556.334.041.642.07.914.088l.07.003-.015-.11c-.245-1.447-1.356-2.46-3.142-3.112l-.248-.087a13.125 13.125 0 0 0-2.533-.557c-.335-.042-.644-.07-.917-.088l-.074-.005z"/></svg>
